papirus/16x16/apps/preferences-desktop-theme.svg

<?xml version="1.0" encoding="UTF-8" standalone="no"?>
<svg
   xmlns:dc="http://purl.org/dc/elements/1.1/"
   xmlns:cc="http://creativecommons.org/ns#"
   xmlns:rdf="http://www.w3.org/1999/02/22-rdf-syntax-ns#"
   xmlns:svg="http://www.w3.org/2000/svg"
   xmlns="http://www.w3.org/2000/svg"
   viewBox="0 0 16 16"
   version="1.1"
   width="16"
   height="16"
   id="svg4468">
  <defs
     id="defs4470" />
  <metadata
     id="metadata4473">
    <rdf:RDF>
      <cc:Work
         rdf:about="">
        <dc:format>image/svg+xml</dc:format>
        <dc:type
           rdf:resource="http://purl.org/dc/dcmitype/StillImage" />
        <dc:title></dc:title>
      </cc:Work>
    </rdf:RDF>
  </metadata>
  <path
     id="rect4203"
     d="M 0.80078125 1 C 0.35758125 1 1.4802974e-16 1.3464238 0 1.7773438 L 0 2.5546875 L 0 13 L 16 13 L 16 2.5546875 L 16 1.7773438 C 16 1.3464237 15.642419 1 15.199219 1 L 0.80078125 1 z "
     style="fill:#4ab3e4" />
  <path
     style="fill:#4d4d4d"
     d="m 0.80000004,15 c -0.4432,0 -0.8,-0.346864 -0.8,-0.777784 L 4e-8,13 16,13 16,14.222216 C 16,14.653136 15.6432,15 15.2,15 Z"
     id="rect3328" />
  <path
     style="opacity:1;fill:#ffffff;fill-opacity:1;stroke:none;stroke-width:4;stroke-linecap:round;stroke-linejoin:round;stroke-miterlimit:4;stroke-dasharray:none;stroke-opacity:1"
     d="M 5,5 5,9.5 C 5,9.777 5.223,10 5.5,10 l 7,0 C 12.777,10 13,9.777 13,9.5 L 13,5 5,5 Z"
     id="rect4152" />
  <path
     id="rect4154"
     d="m 5.5000005,4.0000003 6.9999995,0 c 0.277,0 0.499999,0.2230006 0.499999,0.5000003 l 0,0.4999994 -7.9999985,0 0,-0.4999994 c 0,-0.2769997 0.2229999,-0.5000003 0.5,-0.5000003 z"
     style="opacity:1;fill:#4d4d4d;fill-opacity:1;stroke:none;stroke-width:4;stroke-linecap:round;stroke-linejoin:round;stroke-miterlimit:4;stroke-dasharray:none;stroke-opacity:1" />
  <rect
     rx="0.125"
     ry="0.125"
     y="2"
     x="1"
     height="1"
     width="1"
     id="rect4139"
     style="opacity:1;fill:#ffffff;fill-opacity:1;stroke-width:1;stroke-miterlimit:4;stroke-dasharray:none" />
  <rect
     style="opacity:1;fill:#ffffff;fill-opacity:1;stroke-width:1;stroke-miterlimit:4;stroke-dasharray:none"
     id="rect4141"
     width="1"
     height="1"
     x="1"
     y="4"
     ry="0.125"
     rx="0.125" />
  <rect
     rx="0.125"
     ry="0.125"
     y="6"
     x="1"
     height="1"
     width="1"
     id="rect4143"
     style="opacity:1;fill:#ffffff;fill-opacity:1;stroke-width:1;stroke-miterlimit:4;stroke-dasharray:none" />
  <rect
     style="opacity:1;fill:#ffffff;fill-opacity:1;stroke-width:1;stroke-miterlimit:4;stroke-dasharray:none"
     id="rect4145"
     width="1"
     height="1"
     x="1"
     y="8"
     ry="0.125"
     rx="0.125" />
</svg>

<?xml version="1.0" encoding="UTF-8" standalone="no"?>
<svg id="svg4468" xmlns:rdf="http://www.w3.org/1999/02/22-rdf-syntax-ns#" xmlns="http://www.w3.org/2000/svg" height="16" width="16" version="1.1" xmlns:cc="http://creativecommons.org/ns#" viewBox="0 0 16 16" xmlns:dc="http://purl.org/dc/elements/1.1/">
 <metadata id="metadata4473">
  <rdf:RDF>
   <cc:Work rdf:about="">
    <dc:format>image/svg+xml</dc:format>
    <dc:type rdf:resource="http://purl.org/dc/dcmitype/StillImage"/>
    <dc:title/>
   </cc:Work>
  </rdf:RDF>
 </metadata>
 <path id="rect4203" fill="#4ab3e4" d="m0.80078 1c-0.4432 0-0.80078 0.3464-0.80078 0.7773v0.7774 10.445h16v-10.445-0.7777c0-0.4309-0.358-0.7773-0.801-0.7773h-14.398z"/>
 <path id="rect3328" fill="#4d4d4d" d="m0.8 15c-0.4432 0-0.8-0.34686-0.8-0.77778l4e-8 -1.222h16v1.222c0 0.431-0.357 0.778-0.8 0.778z"/>
 <path id="rect4152" d="m5 5v4.5c0 0.277 0.223 0.5 0.5 0.5h7c0.277 0 0.5-0.223 0.5-0.5v-4.5h-8z" fill="#fff"/>
 <path id="rect4154" d="m5.5 4h7c0.277 0 0.5 0.223 0.5 0.5v0.5h-8v-0.5c0-0.277 0.223-0.5 0.5-0.5z" fill="#4d4d4d"/>
 <rect id="rect4139" rx=".125" ry=".125" height="1" width="1" y="2" x="1" fill="#fff"/>
 <rect id="rect4141" rx=".125" ry=".125" height="1" width="1" y="4" x="1" fill="#fff"/>
 <rect id="rect4143" rx=".125" ry=".125" height="1" width="1" y="6" x="1" fill="#fff"/>
 <rect id="rect4145" rx=".125" ry=".125" height="1" width="1" y="8" x="1" fill="#fff"/>
</svg>
